img/features/logo-step-1.svg

<svg width="80" height="80" viewBox="0 0 80 80" fill="none" xmlns="http://www.w3.org/2000/svg">
<rect width="80" height="80" fill="#68B738"/>
<g clip-path="url(#clip0)">
<path d="M52.8437 26.767C52.7434 26.317 52.3647 26 51.9325 26C51.9306 26 51.9287 26 51.9269 26C46.9891 26.033 34.9816 26.916 30.1337 34.38C27.6156 38.258 27.3991 43.293 29.4897 49.345C29.5056 49.392 29.5384 49.424 29.56 49.467C28.8128 51.44 28.5231 52.753 28.5156 52.79C28.4069 53.33 28.7303 53.862 29.2366 53.978C29.3022 53.993 29.3678 54 29.4334 54C29.8656 54 30.2547 53.679 30.3494 53.21C30.3691 53.108 32.7578 42.837 41.2028 36.832C41.6341 36.526 41.7503 35.905 41.4625 35.445C41.1747 34.985 40.5934 34.86 40.1622 35.168C35.3734 38.573 32.4241 43.176 30.6897 46.824C29.4484 42.246 29.7737 38.447 31.6759 35.519C35.4194 29.755 44.2984 28.365 49.6581 28.071C48.505 29.872 47.245 33.174 47.245 39C47.245 42.12 46.4153 44.522 44.7803 46.14C42.1591 48.731 37.9009 48.974 34.7866 48.724C34.2691 48.679 33.82 49.095 33.7806 49.646C33.7412 50.196 34.1284 50.676 34.6441 50.718C35.2675 50.769 35.9331 50.8 36.625 50.8C39.7956 50.8 43.4941 50.137 46.0544 47.606C48.0887 45.595 49.12 42.7 49.12 39.001C49.12 29.902 52.3356 27.905 52.3516 27.896C52.7416 27.687 52.9459 27.219 52.8437 26.767Z" fill="white"/>
</g>
<defs>
<clipPath id="clip0">
<rect width="30" height="32" fill="white" transform="translate(25 24)"/>
</clipPath>
</defs>
</svg>

<svg width="80" height="80" fill="none" xmlns="http://www.w3.org/2000/svg"><path fill="#68B738" d="M0 0h80v80H0z"/><g clip-path="url(#clip0)"><path d="M52.844 26.767c-.1-.45-.48-.767-.912-.767h-.005c-4.938.033-16.945.916-21.793 8.38-2.518 3.878-2.735 8.913-.644 14.965.016.047.048.079.07.122-.747 1.973-1.037 3.286-1.044 3.323-.11.54.214 1.072.72 1.188a.88.88 0 00.197.022c.433 0 .822-.321.916-.79.02-.102 2.409-10.373 10.854-16.378.431-.306.547-.927.26-1.387-.288-.46-.87-.585-1.3-.277-4.79 3.405-7.739 8.008-9.473 11.656-1.242-4.578-.916-8.377.986-11.305 3.743-5.764 12.622-7.154 17.982-7.448-1.153 1.801-2.413 5.103-2.413 10.929 0 3.12-.83 5.522-2.465 7.14-2.62 2.591-6.88 2.834-9.993 2.584-.518-.045-.967.371-1.006.922-.04.55.347 1.03.863 1.072.623.051 1.29.082 1.981.082 3.17 0 6.87-.663 9.43-3.194 2.034-2.011 3.065-4.906 3.065-8.605 0-9.099 3.216-11.096 3.232-11.105.39-.209.594-.677.492-1.129z" fill="#fff"/></g><defs><clipPath id="clip0"><path fill="#fff" transform="translate(25 24)" d="M0 0h30v32H0z"/></clipPath></defs></svg>
